X:059
T:I Loved a Lass
Z:Nigel Gatherer
M:3/4
L:1/4
K:F
C|FFC|F2 C/C/|FGA|B2A/B/|
cAG|F/ C-C/D|_EDE|C2c|
cdc|BAG|F-F/ G/ A|C2 c/d/|
_EDC|B,A,B,|C/F/-F2|]
<end>
<start>
